!!!OTL@@FUR: Olin gjoldi l'alegrie
!!!OTL@IT: Vogliamo godere l'allegria
!!!OTL@EN: Let's enjoy the good times
**kern
*clefG2
*k[b-]
*F:
*M3/4
*MM55
*>[A]
*>A
8a
8b-
=1
4.cc
8dd
8.cc
16dd
=2
4cc
4a
8.g
16a
=3
4.b-
8cc
8.b-
16cc
=4
2a
8.cc
16cc
=5
4.ff
8ee
8.dd
16cc
=6
4cc
4b-
8.b-
16dd
=7
4.cc
8b-
8.cc
16b-
=8
2a
8.cc
16cc
=9
4.ff
8ee
8.dd
16cc
=10
4cc
4b-
8.b-
16dd
=11
4.cc
8b-
8.cc
16b-
=12
2a
==
*-
!!!ARE: Friui
!!!ENC: Kelly Leistikow
!!!END: 2002/22/02
!!!ref: @{OTL@@FUR}/@{OTL@EN}
